X:1
T:Duke Street, LM
T:Duke Street, LM
T:Attributed to John Hatton, 1793
T:Public Domain Courtesy of the Cyber Hymnal™
C:Attributed to John Hatton, 1793
Z:Public Domain
Z:Courtesy of the Cyber Hymnal™
%%score ( 1 2 ) ( 3 4 )
L:1/8
Q:1/4=145
M:4/4
K:D
V:1 treble 
V:2 treble 
V:3 bass 
V:4 bass 
V:1
 D4 [DF]2 [CG]2 | [DA]4 [DB]2 [Ec]2 | [Fd]4 ([Ec]2 [DB]2) | [CA]8 | [DA]4 [DA]2 [DA]2 | [DB]4 A4 | %6
 G4 [DF]4 | [CE]8 | [DF]4 [DF]2 [CE]2 | ([A,D]2 [DF]2) (A2 d2) | (B2 A2) [CG]2 [DF]2 | [CE]8 | %12
 [DA]4 [DB]2 [Ec]2 | d6 [EG]2 | [DF]4 [CE]4 | D8 |] %16
V:2
 D4 x4 | x8 | x8 | x8 | x8 | x4 (D2 A,2) | (B,2 C2) x4 | x8 | x8 | x4 D4 | D4 x4 | x8 | x8 | %13
 (F3 E D2) x2 | x8 | D8 |] %16
V:3
 [D,F,]4 [D,A,]2 [E,A,]2 | [F,A,]4 G,2 E,2 | (F,2 A,2) (A,2 ^G,2) | [A,,A,]8 | %4
 [D,F,]4 [D,F,]2 [F,A,]2 | G,4 (A,2 F,2) | (G,2 A,2) [D,A,]4 | [A,,A,]8 | %8
 [D,A,]4 [D,A,]2 [A,,G,]2 | (F,2 A,2) [F,A,]4 | [G,B,]2 [F,D]2 A,4 | [A,,A,]8 | %12
 [F,A,]4 G,2 [E,G,]2 | ([D,F,]3 [E,G,] [F,A,]2) [G,B,]2 | A,4 (A,2 G,2) | [D,F,]8 |] %16
V:4
 x8 | x4 G,2 E,2 | D,4 E,4 | x8 | x8 | G,4 F,4 | E,4 x4 | x8 | x8 | D,4 x4 | x4 (E,2 D,2) | x8 | %12
 x8 | x8 | A,4 A,,4 | x8 |] %16

